X:31
T:Sailor's Glory. Roose.0174, The
N:same as no.159, p.80 in Compleat Collection of 200 Favourite Country Dances vol.5 (London, 1788)
M:6/8
L:1/8
Q:3/8=120
B:John Roose MS, 1850
Z:Village Music Project. Ian Hayden 2019
K:F
B|A2c f2c|cdc cAF|Bcd {d}cBA|BGG G2B|
A2c f2c|cdc cAF|Bcd cdB|ABG F2:|
|:c|fga b2a|gaf edc|def {d}cBA|BGG G2f|
fga b2a|gaf edc|def cdB|ABG F2:|

